!!!!SEGMENT: pl-lzu--m-15111--001-014_noskowski-zygmunt--spiewnik-dla-dzieci-op-34-14-w-polu.krn
!!!cenid: 18xx:4711
!!!COM: Noskowski, Zygmunt
!!!COM-rismID: pe106604
!!!CDT: 1846/05/02-1909/07/23
!!!CNT: Polish
!!!GTL: Śpiewnik dla dzieci, op. 34
!!!OTL: 14. W polu
!!!OMV: 014
!!!PDT: 1890
!!!AGN: Secular; Song; Children
!!!YEC: Copyright 2022 Narodowy Instytut Fryderyka Chopina (https://polishscores.org)
!!!YEM: License CC-BY-4.0 (https://creativecommons.org/licenses/by/4.0)
!!!SMS-siglum: PL-LŹu
!!!SMS-shelfmark: M 15111
!!!SMS-variant:
!!!SMS-altvar:
!!!SMS-shelfwork: 001-014 G
!!!NIFC-rismSourceID: 1001234040
!!!NIFC-rismChildID: 1001234040
!!!NIFC-islandoraID: pl-lzu:5455
!!!URL-pdf-islandora: https://repozytorium.nifc.pl/islandora/object/pl-lzu%3A5455/datastream/PDF/view
!!!URL-scan: https://polish.musicsources.pl/pl/lokalizacje/galeria/druki-muzyczne/23228/22 @EN{Scan on Polish Music Sources Website} @PL{Skany w portalu Dziedzictwo Muzyki Polskiej w otwartym dostępie}
!!!IIIF:
!!!ONB-nifc:
!!!AIN: 1 piano 1 vox
!!!key: D
!!!OMD: Andantino.
**kern	**kern	**dynam	**kern	**text	**text	**dynam
*part2	*part2	*part2	*part1	*part1	*part1	*part1
*staff3	*staff2	*staff2/3	*staff1	*staff1	*staff1	*staff1
*I"[Piano]	*I"[Piano]	*	*I"[Voice]	*	*	*
*I'pf	*I'pf	*	*I'V	*	*	*
*Ipiano	*Ipiano	*	*Ivox	*	*	*
*ICklav	*ICklav	*	*ICvox	*	*	*
*IGacmp	*IGacmp	*	*IGsolo	*	*	*
*>[A,A]	*>[A,A]	*>[A,A]	*>[A,A]	*>[A,A]	*>[A,A]	*>[A,A]
*>A	*>A	*>A	*>A	*>A	*>A	*>A
*clefF4	*clefG2	*	*clefG2	*	*	*
*k[f#c#]	*k[f#c#]	*	*k[f#c#]	*	*	*
*D:	*D:	*	*D:	*	*	*
*M3/4	*M3/4	*	*M3/4	*	*	*
=1	=1	=1	=1	=1	=1	=1
*^	*^	*	*	*	*	*
!	!	!	!	!LO:DY:rj	!	!	!	!
(2F#/	2BB\	2.a/	(2d\	f >	2.r	.	.	.
8A/L	4C#\	.	4e\)	]	.	.	.	.
8G/J)	.	.	.	.	.	.	.	.
*v	*v	*	*	*	*	*	*	*
*	*v	*v	*	*	*	*	*
=2	=2	=2	=2	=2	=2	=2
!	!	!LO:DY:rj	!	!	!	!
2.F# 2.D\	2.a 2.d/	p	2.r	.	.	.
=3	=3	=3	=3	=3	=3	=3
*	*	*	*	*v:1	*v:2	*
*	*^	*	*	*	*	*
2.F# 2.D\	(<4a/	2.d\	.	4a 4d/	Pój-	Dłu-	p
.	8dd/L	.	.	8dd 8d/	-dzie-	-go-	.
.	8b/J	.	.	8b 8d/	-my	-ście	.
.	8a/L	.	.	8a 8d/	w po-	spa-	.
.	8b/J)	.	.	8b 8d/	-le,	-ły	.
=4	=4	=4	=4	=4	=4	=4	=4
*^	*	*	*	*	*	*	*
(4E/	2.D\	(<8a/L	4c#\	.	8a 8c#/	w ran-	twar-	.
.	.	8g/J	.	.	8g 8c#/	-ny	-dym	.
2A/)	.	2f# 2d/)	2ryy	.	2f# 2d,/	czas:	snem,	.
*v	*v	*	*	*	*	*	*	*
!!LO:LB:g=original
=5	=5	=5	=5	=5	=5	=5	=5
*	*	*	*	*	*v:1	*v:2	*
4GG/	(>4e 4d 4B/	4ryy	.	4e 4d/	Mło-	Pod	.
4EE/	8g/L	4d 4B\	.	8g 8d/	-de	bia-	.
.	8f#/J	.	.	8f# 8d/	tra-	-łym	.
4G 4AA\	8e/L	4c#\	.	8e 8c#/	-we-	śnież-	.
.	8f#/J)	.	.	8f# 8c#/	-czki	-kiem,	.
*	*v	*v	*	*	*	*	*
=6	=6	=6	=6	=6	=6	=6
*^	*	*	*^	*	*	*
(<8F#/L	4D\	(8d/L	.	8d/	8d\	wi-	w po-	.
8A/J)	.	8f#/J)	.	8f# 8d/	8ryy	-tam	-lu	.
2F# 2D\	2ryy	2a 2d/	.	2a 2d/	2ryy	was!	tem.	.
*v	*v	*	*	*v	*v	*	*	*
=7||	=7||	=7||	=7||	=7||	=7||	=7||
*M2/4	*M2/4	*	*M2/4	*	*	*
*^	*	*	*	*	*	*
4E/	2AA\	(>4a 4c#/	.	4a 4c#/	Mło-	Te-	.
8G/L	.	8eL 8c#/	.	8e 8c#/	-de	-raz	.
8F#/J	.	8f#J 8c#/)	.	8f# 8c#/	tra-	głó-	.
=8	=8	=8	=8	=8	=8	=8	=8
4E/	2AA\	(>4g 4c#/	<	4g 4c#/	-we-	-we-	<
8A/L	.	8f#L 8c#/	.	8f# 8c#,/	-czki	-czki	[
8G/J	.	8gJ 8c#/)	[	8g 8c#/	zie-	wzno-	.
*v	*v	*	*	*	*	*	*
!!LO:PB:g=original
=9	=9	=9	=9	=9	=9	=9
*	*	*	*	*v:1	*v:2	*
2G 2D\	2b 2d/	>	2b 2d/	-lo-	-si-	>
=10	=10	=10	=10	=10	=10	=10
*	*	*	*^	*	*	*
4F# 4D\	4a 4d/	]	4a 4d/	4.ryy	-ne	-cie,	]
8r	8r	.	8r	.	.	.	.
8A\	8a/	.	8a/	8a\	Po-	Bo	.
*	*	*	*v	*v	*	*	*
=11	=11	=11	=11	=11	=11	=11
4A 4E\	4cc# 4g/	<	4cc# 4g/	-ran-	przy-	>
4A 4D\	4dd 4f#/	[	4dd 4f#/	-ną	-szło	]
=12	=12	=12	=12	=12	=12	=12
*	*^	*	*	*	*	*
4EE/	4a 4f# 4B/	4ryy	.	4a 4f#/	ro-	słoń-	.
(8EE/L	(<8gL 8e/	4B\	.	8g 8e/	-są	-ce	.
8FF#/J)	8f#J 8d/)	.	.	8f# 8d/	zro-	i	.
*	*v	*v	*	*	*	*	*
=13	=13	=13	=13	=13	=13	=13
*	*	*	*^	*	*	*
4GG/	4e 4d 4B/	>	2e/	(4d\	-szo-	ży-	>
4AA/	4e 4c# 4G/	]	.	4c#\)	.	.	]
=14	=14	=14	=14	=14	=14	=14	=14
4AA 4DD/	4d 4F#/	.	4d/	4d\	-ne.	-cie.	.
4r	4r	.	4r	4ryy	.	.	.
*	*	*	*v	*v	*	*	*
==	==	==	==	==	==	==
*-	*-	*-	*-	*-	*-	*-
!!!system-decoration: p1{p2}
!!!RDF**kern: > = above
!!!RDF**kern: < = below
!!!ENC: Andrzej Gręziak
!!!END: 2025-03-04
!!!ENC: Marta Lawrence
!!!END: 2025-03-20
